!!!!SEGMENT: Ver2004-Ave_sanctissima_Maria.krn
!!!id: Ver2004
!!!AGN: Motet
!!!SCT: Smijers (1936)
!!!voices: 4
!!!COM: Philippe Verdelot
!!!OTL: Ave sanctissima Maria
**kern	**kern	**kern	**kern
*part4	*part3	*part2	*part1
*staff4	*staff3	*staff2	*staff1
*I"Bassus	*I"Tenor	*I"Altus	*I"Superius
*I'B	*I'T	*I'A	*I'S
*clefF4	*clefGv2	*clefGv2	*clefG2
*k[]	*k[]	*k[]	*k[]
*C:	*C:	*C:	*C:
*M2/1	*M2/1	*M2/1	*M2/1
*met(C|)	*met(C|)	*met(C|)	*met(C|)
!!section: Prima pars: Ave sanctissima Maria
!!!OMD: Prima pars: Ave sanctissima Maria
=1	=1	=1	=1
0r	0r	1A	0r
.	.	[1d	.
=2	=2	=2	=2
0r	0r	1d]	0r
.	.	1c	.
=3	=3	=3	=3
0r	0r	1.f	1d
.	.	.	[1a
.	.	2e	.
=4	=4	=4	=4
0r	0r	2.d	1a]
.	.	4c	.
.	.	1B	1g
=5	=5	=5	=5
1r	0r	1A	1.cc
1AA	.	1c	.
.	.	.	2b
=6	=6	=6	=6
0D	0r	1d	2.a
.	.	.	4g
.	.	1d	1f
=7	=7	=7	=7
1C	1r	1e	1e
[1F	1D	[1A	1r
=8	=8	=8	=8
2F]	0A	1A]	1c
2E	.	.	.
2.D	.	1F	1d
4C	.	.	.
=9	=9	=9	=9
1BB	1G	1D	1d
1AA	[1c	1A	1e
=10	=10	=10	=10
1C	2c]	2r	1e
.	2B	2G	.
1D	2.A	[1d	1a
.	4G	.	.
=11	=11	=11	=11
1D	1F	2.d]	1a
.	.	4c	.
1E	1E	2B	[1g
.	.	[2G	.
=12	=12	=12	=12
1C	1c	2G]	1g]
.	.	1c	.
1G	1d	.	1r
.	.	4B	.
.	.	4A	.
=13	=13	=13	=13
1G	1d	1B	0g
1C	[1e	[1c	.
=14	=14	=14	=14
1r	0e_	2c]	1a
.	.	2A	.
1E	.	2B	1g
.	.	[2c	.
=15	=15	=15	=15
1A	1e]	4c]	0a
.	.	4B	.
.	.	4c	.
.	.	4d	.
1A	1r	2e	.
.	.	2c	.
=16	=16	=16	=16
1G	0G	1d	0b
1E	.	1r	.
=17	=17	=17	=17
1F	1A	0c	1r
1E	1G	.	1g
=18	=18	=18	=18
2.D	0A	1d	2f
.	.	.	2d
8CL	.	.	.
8BBJ	.	.	.
1AA	.	1c	2e
.	.	.	2f#i
=19	=19	=19	=19
1GG	0B	0d	[0g
2r	.	.	.
2GG	.	.	.
=20	=20	=20	=20
2.C	2r	0e	0g]
.	2G	.	.
4D	.	.	.
2E	1c	.	.
2C	.	.	.
=21	=21	=21	=21
2D	2B	2r	1r
2E	2c	2G	.
1F	1A	2.c	2r
.	.	.	2c
.	.	4d	.
=22	=22	=22	=22
1E	1G	2e	1g
.	.	2c	.
1r	1r	2d	2f
.	.	2e	2e
=23	=23	=23	=23
1r	1r	1f	1a
2r	2r	2e	1g
[2C	[2c	[2e	.
=24	=24	=24	=24
2C]	2c]	2e]	1cc
2C	2e	2g	.
1D	2.d	1f	2b
.	.	.	[2a
.	4c	.	.
=25	=25	=25	=25
1E	1B	1e	2a]
.	.	.	2g
2AA	1A	2c	2f
[2C	.	[2e	[2e
=26	=26	=26	=26
2C]	1e	2e]	2e]
2C	.	2g	2cc
1D	2.d	1f	2b
.	.	.	[2a
.	4c	.	.
=27	=27	=27	=27
1E	1B	1e	2a]
.	.	.	2g#i
2AA	[1A	2c	1a
[2F	.	[2c	.
=28	=28	=28	=28
2F]	0A]	2c]	0r
2E	.	2c	.
2D	.	2d	.
2C	.	2e	.
=29	=29	=29	=29
1D	2r	0A	2r
.	1d	.	1f
1AA	.	.	.
.	2c	.	2e
=30	=30	=30	=30
0r	2d	1f	1d
.	2D	.	.
.	2A	2e	2c
.	4D	[2d	[2f
.	4E	.	.
=31	=31	=31	=31
0r	4F	2d]	2f]
.	4G	.	.
.	2A	2c	2e
.	1D	1f	1d
=32	=32	=32	=32
1AA	1A	0e	0c
[1C	2r	.	.
.	2E	.	.
=33	=33	=33	=33
1C]	1G	0r	0r
1BB	1G	.	.
=34	=34	=34	=34
0AA	0A	1A	1r
.	.	[1c	1e
=35	=35	=35	=35
0r	0r	1c]	1g
.	.	1B	1g
=36	=36	=36	=36
1AA	1r	1A	1a
[1C	1E	1r	2r
.	.	.	2e
=37	=37	=37	=37
1C]	1G	0r	2e
.	.	.	2e
1BB	1G	.	1d
=38	=38	=38	=38
1AA	1A	2r	4c
.	.	.	4d
.	.	2e	4e
.	.	.	4f
1r	1r	2e	4g
.	.	.	4f
.	.	2e	4g
.	.	.	4a
=39	=39	=39	=39
0r	1r	1d	4b
.	.	.	4cc
.	.	.	4dd
.	.	.	4b
.	2r	4c	1cc
.	.	4d	.
.	2e	4e	.
.	.	4f	.
=40	=40	=40	=40
0r	2e	2g	2b
.	2e	2e	2g
.	1d	1f	2a
.	.	.	2b
=41	=41	=41	=41
2r	4c	1e	0cc
.	4B	.	.
2A	4c	.	.
.	4d	.	.
2A	2e	1r	.
2A	2c	.	.
=42	=42	=42	=42
1G	2d	0r	1b
.	2e	.	.
4F	1f	.	2r
4E	.	.	.
4F	.	.	2a
4G	.	.	.
=43	=43	=43	=43
2A	0c	1e	2a
4AA	.	.	2a
4BB	.	.	.
4C	.	2e	1g
4D	.	.	.
4E	.	2e	.
4C	.	.	.
=44	=44	=44	=44
1D	1A	1d	2f
.	.	.	1a
2AA	1r	1c	.
2C	.	.	2g
=45	=45	=45	=45
0F	1c	0A	0a
.	1d	.	.
=46	=46	=46	=46
1E	1e	2B	1g
.	.	2G	.
[1D	[1f	[1d	1a
=47	=47	=47	=47
1D]	1f]	2d]	1b
.	.	2D	.
2.C	1e	2E	[1cc
.	.	[2G	.
4BB	.	.	.
=48	=48	=48	=48
1AA	0r	2G]	1cc]
.	.	2F	.
[1GG	.	4G	1b
.	.	4A	.
.	.	4B	.
.	.	4c	.
=49	=49	=49	=49
1GG]	1G	1d	1r
1r	1c	1r	1g
=50	=50	=50	=50
1r	2.A	1c	1.cc
.	4B	.	.
1F	2c	[1f	.
.	[2d	.	2b
=51	=51	=51	=51
1F	2d]	2f]	1a
.	1c	2e	.
1G	.	1d	1g
.	2B	.	.
=52	=52	=52	=52
1A	2.c	1c	1r
.	4B	.	.
1D	2.A	1r	[1a
.	4G	.	.
=53	=53	=53	=53
1D	2F	1.d	2a]
.	1B-i	.	2g
1D	.	.	1f
.	[2A	2c	.
=54	=54	=54	=54
1E	2A]	1B	1e
.	2G	.	.
1AA	2.A	1A	2r
.	.	.	2e
.	4G	.	.
=55	=55	=55	=55
1r	1F	2r	2d
.	.	2A	2c
2r	1E	2B	1g
2E	.	2G	.
=56	=56	=56	=56
2D	1r	2A	2f
2C	.	1c	1e
1G	2r	.	.
.	2B	2B	2d
=57	=57	=57	=57
0C	2A	1c	1e
.	2G	.	.
.	1c	1G	2r
.	.	.	2e
=58	=58	=58	=58
1r	2B	2r	2d
.	2A	2A	2c
2r	1G	2B	1g
2E	.	2G	.
=59	=59	=59	=59
2D	1r	2A	2f
2C	.	1c	1e
1G	2r	.	.
.	2B	2B	2d
=60	=60	=60	=60
0C	2A	1c	0e
.	2G	.	.
.	1c	[1G	.
=61	=61	=61	=61
0D	1B	2G]	[0d
.	.	4F#i	.
.	.	4E	.
.	1A	1F#i	.
=62	=62	=62	=62
0GG	[0B	0G	0d]
=63	=63	=63	=63
1GG	1B]	2r	2r
.	.	1G	1d
[1GG	2r	.	.
.	[2D	2G	2d
=64	=64	=64	=64
1GG]	2D]	1.d	1.g
.	2D	.	.
1GG	[1G	.	.
.	.	2c	2f
=65	=65	=65	=65
1GG	2G]	1B	2e
.	2F	.	1d
1AA	1E	[1A	.
.	.	.	2c#i
=66	=66	=66	=66
0D	2D	0A]	[0d
.	2.F	.	.
.	4G	.	.
.	4A	.	.
.	4F	.	.
=67	=67	=67	=67
0r	1B-i	2r	1d]
.	.	1d	.
.	1A	.	2r
.	.	2c	[2a
=68	=68	=68	=68
0r	2F	1d	2a]
.	2G	.	2g
.	1D	1f	1a
=69	=69	=69	=69
1r	1A	2e	2.cc
.	.	1f	.
.	.	.	4b
2r	1r	.	4a
.	.	.	4g
[2D	.	2d	4f
.	.	.	4e
=70	=70	=70	=70
2D]	0r	2f	2d
2C	.	2e	2e
1D	.	2.d	2f
.	.	.	[2d
.	.	8cL	.
.	.	8BJ	.
=71	=71	=71	=71
2F	2r	1A	2d]
1F	1A	.	2c
.	.	1r	2d
2E	2G	.	2e
=72	=72	=72	=72
2D	1A	1F	1f
2D	.	.	.
2C	2c	2G	[1e
[2AA	[2c	[2A	.
=73	=73	=73	=73
2AA]	2c]	2A]	0e]
2GG	2B	2B	.
1AA	2A	[1c	.
.	2A	.	.
=74	=74	=74	=74
2C	1G	2c]	2r
1C	.	2G	1e
.	1r	2A	.
2BB	.	2B	2d
=75	=75	=75	=75
2AA	1r	1c	1e
2AA	.	.	.
1GG	[1D	2.B	2g
.	.	.	[2g
.	.	8AL	.
.	.	8GJ	.
=76	=76	=76	=76
1r	1D]	1A	2g]
.	.	.	2f
1C	1E	1r	2e
.	.	.	2e
=77	=77	=77	=77
0D	0F	1A	1d
.	.	1B	1d
=78	=78	=78	=78
1C	1.G	1c	1e
[1GG	.	2.B	1d
.	2A	.	.
.	.	4c	.
=79	=79	=79	=79
1GG]	1B	1d	0g
1C	1c	2c	.
.	.	[2e	.
=80	=80	=80	=80
1D	[0A	2e]	1f
.	.	1d	.
1AA	.	.	1e
.	.	2c	.
=81	=81	=81	=81
0D	1A]	0f	2.d
.	.	.	4e
.	1d	.	4f
.	.	.	4g
.	.	.	[2a
=82	=82	=82	=82
1E	2c	1e	2a]
.	1B	.	2g
1F	.	2c	1a
.	2A	2d	.
=83	=83	=83	=83
1E	1B	1e	2g
.	.	.	2e
2r	2r	2d	2f
[2E	2B	[2G	[2g
=84	=84	=84	=84
2E]	2c	2G]	2g]
2D	1d	2A	2f
2BB	.	2B	2d
2C	2c	[2G	[2e
=85	=85	=85	=85
1D	2A	2G]	2e]
.	1B	2F	1d
2GG	.	2G	.
2AA	[2A	2E	2c
=86	=86	=86	=86
1BB	2A]	2D	2.d
.	2G	1d	.
.	.	.	4e
1AA	1A	.	4f
.	.	.	4g
.	.	[2c	[2a
=87	=87	=87	=87
2r	2F	4c]	2a]
.	.	4d	.
1C	2G	1e	2g
.	1A	.	2e
2D	.	[2d	[2f
=88	=88	=88	=88
2.F	1D	4d]	4f]
.	.	4c	4e
.	.	2.A	4d
4E	.	.	4c
2D	2F	.	2d
.	.	4B	.
2C	2E	2c	[2e
=89	=89	=89	=89
2D	2F	2A	2e]
2BB	2G	2G	1d
1AA	1E	1A	.
.	.	.	2c#i
=90	=90	=90	=90
0GG	0G	0B	[0dl
=91	=91	=91	=91
00Dl	00Fl	00Al	00d]
==	==	==	==
*-	*-	*-	*-
!!!system-decoration: [*]
!!!RDF**kern: i = editorial accidental
!!!RDF**kern: l = terminal long
!!!ENC: Benjamin Ory
!!!END: 2021/12/3
!!!EED: Benjamin Ory
!!!EEV: 2021/12/03
!!!YEC: Copyright 2021 Benjamin Ory, All Rights Reserved
!!!ONB: Translated from MusicXML on 2021/12/03
